X:1
T:Le ruban rose
T:Le ruban rose
T:Augusta Holmès
T:(Holmès)
C:Augusta Holmès
Z:(Holmès)
%%score 1 { ( 2 4 ) | ( 3 5 6 ) }
L:1/8
Q:1/4=138
M:4/4
K:Bb
V:1 treble nm="Voix"
V:2 treble nm="Piano"
V:4 treble 
V:3 treble 
V:5 treble 
V:6 treble 
V:1
"^Allegretto" z8 | z8 | z8 | z8 | z8 | z8 | z8 | z8 |[Q:1/4=130] z8[Q:1/4=110] | z8 | %10
w: ||||||||||
"^a Tempo"[Q:1/4=138] z4 z!p! D =E ^F ||[K:Bb] .G2 .d2 .d2 .c2 | d4 .e2 .f2 | d2 c B .c2 .d2 | %14
w: Ce- lui que|j'aime est si mi-|gnon Que les|fem- mes en sont mar-|
 BA G2 z G A B |!<(! A2 d2!<)! d2!>(! =e2 | (d2!>)!!mp! A) z D =E ^F D | A4 ^F2 =E2 | %18
w: ri- * es; Il n'a ni|chas- ses ni prai-|ri- es; Pas mê- me le|moin- dre pi-|
 D4 z!f! D =E ^F | G2 d2 d2 c2 | d2 d z!f! e2 f2 | d2 c B c2 d2 | G4 z3/2!p! G/ A3/2 B/ | %23
w: gnon! Il est de|très bon- ne no-|bles- se, Et plus|bra- ve que ses a-|ïeux! Il est ja-|
 A2 z2 z3/2 G/ A3/2 B/ | A2 A2 z2!p!!>(! d ^f!>)! |!pp! (a4 A2) =B2 | ^F4({=EF)} E4 | D2- D z z4 | %28
w: \- loux, un rien le|bles- se! Ses é-|toi- les, ce|sont mes|yeux.  _|
 z8 | z8[Q:1/4=134][Q:1/4=130] | z4 z2!<(! (D2!<)! |"^più lento"[Q:1/4=128] d) z (d2 d3 =e | %32
w: ||Et|puis, c'est un char-|
 c2 c2 c2 d2) | z2 =B d!pp! (g4 | =B) G A B A/ z/"^1° Tempo"[Q:1/4=138] D =E ^F | %35
w: mant vi- sa- ge|Fier et ten-|dre, bien à mon gré.. Il res- semble|
[Q:1/4=138]"^Alltto"[Q:1/4=138]"_Alltto"!<(! G2 d2!<)!!>(! d2 c2!>)! |!>(! d2-!>)! d z z2!<(! e f | %37
w: à l'A- mour pou-|\- dré!  _ C'est pour-|
 g!<)! z!p! G A B2 z2 | z4 z!<(! D =E ^F | G2 d2!<)! d z!p![Q:1/4=130]"^molto rall." (e2 | %40
w: quoi j'en ai fait...|c'est pour- quoi|j'en ai fait mon|
 G2[Q:1/4=120] ^F=E F2[Q:1/4=100]({GF)} EF |"^a Tempo"[Q:1/4=138] G2- G) z z4 | z8 | z8 | z8 | z8 | %46
w: pa- * * * * *|ge!  _|||||
 z8 | z8 | z8[Q:1/4=132] |[Q:1/4=128] z8[Q:1/4=100] | z8 |"^a Tempo"[Q:1/4=138] z4 z!p! D =E ^F | %52
w: |||||J'é- tais en|
 G2 d2 d2 c2 | d4!f! e2 f2 | d2 c B .c2 .d2 | (BA) G2 z!p! G!<(! A B | A2 d2!<)! d2!>(! =e2 | %57
w: grand ha- bit de|Cour, Fard et|mou- ches, sa- tins, den-|te- * le; Ce- lui pour|qui je me fais|
 (d2!>)! A) z (D=E) ^F D | A2 =B2 ^F2({=EF)} E2 | D4 z!p! D =E ^F | G2 d2 d2 c2 | %61
w: bel- le À  _ mes ge-|\- noux par- lait d'a-|mour. Et mon col-|lier de ru- ban|
 d2 d z!<(! e2 f2!<)! |!>(! d c B z!>)! c2 d2 | G4 z3/2"^misterioso" G/ A3/2 B/ | %64
w: ro- se,  Je ne|sais com- ment,  s'en- vo-|la! Il fut cueil-|
 A2 z2 z3/2 G/ A3/2 B/ | A2 A2 z2!p!!>(! d ^f!>)! |!pp! (a4 A2) =B2 | ^F4({=EF)} E4 | D2- D z z4 | %69
w: li comme u- ne|Ro- se Par le|Prin- ce qui|pas- sait|là!  _|
 z8 | z8[Q:1/4=134] |[Q:1/4=132] z4 z2!<(! (D2!<)! |"^Più lento"[Q:1/4=130] d2) (d2 d3 =e | %73
w: ||« Voi-|\- ci vo- tre ru-|
 c2 c2 c2 d2) | z!p! =B B d g4- | %75
w: ban, Ma- da- me;|Re- pre- nez- le |
 g (G A =B A/) z/"^1° Tempo"!p![Q:1/4=138]"^Alltto""^méchamment" D[Q:1/4=138]"_Alltto" =E ^F | %76
w: _ contre un bai- ser! Gar- dez- vous|
!<(! .G2 .d2 .d2!<)! .c2 | d4- d z e f | g z!p! G A B2 z2 | z4 z"^avec ironie"!<(! D =E ^F | %80
w: bien de re- fu-|ser;  _ En ce|cas votre a- mant...|En ce cas|
 G2 d2!<)! d z!p!"^avec une grande politesse""^molto rall." ((e2 | %81
w: votre a- mant rend|
[Q:1/4=130] G2) ^F=E[Q:1/4=110] F2 EF |"^a Tempo"[Q:1/4=138] G2-) G z z4 | z8 | z8 | z8 | z8 | z8 | %88
w: l'â- * * * * *|\- me. »  _||||||
 z8 | z8[Q:1/4=130] |[Q:1/4=124] z8[Q:1/4=100] | z8 |"^a Tempo"[Q:1/4=138] z4 z!p! D!<(! =E ^F | %93
w: ||||Mon jeune a-|
 .G2 .d2 .d2 !^!c2!<)! | !^!d4 e z!f! f2 | d2 c B c2 d2 | (BA) G2!<(! z G A B | A z d2!<)! d2 =e2 | %98
w: mi, plein de fu-|reur, Dit: « Ma-|\- da- me n'est point en|cau- * se! Il m'ap- par-|tient, ce ru- ban|
!>(! (d2!>)! A)!<(! z D =E ^F D!<)! |!f! A4!>(! ^F2 =E2 | D4!>)! z!p! D =E ^F | G2 d2 d2 c2 | %102
w: ro- se, Et je vous tue-|rai, Mon- sei-|gneur! » Et je le|vis, au clair de|
 d2 d z (e2 f2 | d2) c B c2 d2 | G4 z3/2!f! G/ A3/2 B/ | A2 z2!f! z3/2 G/ A3/2 B/ | %106
w: lu- ne, Si jo-|li pen- dant le com-|bat, Qu'il fut choi-|\- si par la For-|
 A2"^avec joie" A2 z d d ^f |!mf! (a4 A2) =B2 | ^F4({=EF)} =E4 | D2- D z z4 | z8 | %111
w: tu- ne Pour que le|Prin- * ce|suc- com-|\- bat!  _||
 z8[Q:1/4=135][Q:1/4=132] | z4 z2!p!!<(! (D2!<)! |"^Più lento"[Q:1/4=130] d2) (d2 d3 =e | %114
w: |« Il|faut me con- so-|
 c2) (c2 c2 d2) | z2 =B d!pp! (g4 | %116
w: ler, Mar- qui- se, »|Dit mon pa-|
 =B) G A B[Q:1/4=138]"_Alltto" A/ z/"^1° Tempo"!p!"^légèrement"[Q:1/4=138]"^Alltto"!<(! D =E ^F | %117
w: \- ge, triste à de- mi, « J'ai tu- é|
 G2!<)! d2 d2 c2 | d2 z2 z2!p!!<(! e f!<)! | g2 z2 z4 | z4 z!<(! D =E ^F | G2!<)! d2 d z!p! e2 | %122
w: mon meil- leur a-|mi! » C'est pour-|quoi...|C'est pour- quoi|je lui fus ex-|
[Q:1/4=125]"^molto rall." G2 ^F=E[Q:1/4=110] F2({GF)} EF |[Q:1/4=100] G4- G2 z2 | !fermata!z8 |] %125
w: qui- * * * * *|se!  _||
V:2
!p! (d2 gd =e2 (5:4:5^f/g/f/e/f/ | d2 gd =e2 (5:4:5^f/g/f/e/f/ | %2
 g) z!f! [dgd'] z [dgd'] z [egc'] z |!>(! ([dgb]2 .[ca]).[Bg] [ca]2-!>)! [ca] z | %4
!p! (d2 gd =e2 (5:4:5^f/g/f/e/f/ | d2 gd =e2 (5:4:5^f/g/f/e/f/ | %6
!<(! g) z [dgd'] z [dgd'] z [ege']!<)! z |!f! (g2 ^f=e"_M.G.""_dim.   e    rall." !trill(!Tf4-) | %8
[K:G] !trill)!f6({gf)} !tenuto!=e!tenuto!f | !tenuto![Bg]8- |"_a Tempo" [Bg] z z2 z4 || %11
[K:Bb]!p! [DGB]2 z2 z2 [FAcf] z | [FBd]2- [FBd] z [GBce] z [FAcf] z | %13
 [FBd]2 z2 [CGAc] z [D^FAd] z | [DGB]2 z2 z4 |!p! [^FA]4- [FA] z [GA] z | %16
 [^FA]2- [FA] z!p! (([DF]4 | [D^FA]4 .[DF=B]2)) .[^CG^c]2 | [D^Fd]2- [DFd] z [DFc]2- [DFc] z | %19
 [DGB]2 z2 z2 .[FAcf] z | .[FBd] z z2!f! [GBce] z [FAcf] z | .[FBd] z z2 .[CGAc] z .[D^FAd] z | %22
 .[B,EG]2 z2!p!!>(! (!^![^C=EGB]4!>)! |!p! [D^FA]2-) [DFA] z!>(! (((!^![^C=EGB]4!>)! | %24
 [D^FA]2-))) [DFA] z!pp! [DFd]4 |!>(! [D^Fd]4- [DFd]2!>)! z2 | ([D^F=B]4 [^CG^c]4 | %27
 [D^Fd]) z!pp! (d'a =b2 (5:4:5^c'/d'/c'/b/c'/ | a2!pp! d'a =b2 (5:4:5^c'/d'/c'/b/c'/ | %29
 d') z"_poco rall." [dd'] z [d^fad'] z [dd'] z | [dg=bd'] z [dd'] z [d^fc'd'] z [dd'] z | %31
!p!"_più lento" [dg=bd'] z .[=Bd]2 ([Bd]3 [B=e]) | .[c=e]2 .[cf]2 [c^f]2- [cf] z | %33
!p! [=Bg]2- [Bg] z!pp! ([GBg]4 | [^CG^c]4 [D^F=c]2)"_1° Tempo" z2 | %35
!p! [DGB]2 z2!8va(! .[d'd'']z.[c'c''] z | [d'd'']2 z2 z2!<(! !wedge![e'e'']!wedge![f'f'']!<)! | %37
 !wedge![g'g'']2!8va)! z2 z4 | z8 | z4 z2!p!"_molto rall." (e2 | c8 | %41
 [G=B])"^a Tempo" z!p! (gd =e2 (5:4:5^f/g/f/e/f/ | d2 gd =e2 (5:4:5^f/g/f/e/f/ | %43
 g) z!f! [dgd'] z [dgd'] z [egc'] z | ([dgb]2 .[ca]).[Bg] [ca]2- [ca] z | %45
!p! (d2 gd =e2 (5:4:5^f/g/f/e/f/ | d2 gd =e2 (5:4:5^f/g/f/e/f/ | %47
 g) z!f! [dgd'] z [dgd'] z [ege'] z | g2"_dim.   e    rall." ^f=e"_M.G." !trill(!Tf4 | %49
 ^f6({gf)} !tenuto!=e!tenuto!f | !tenuto![Bg]8- |"^a Tempo" [Bg] z z2 z4 | %52
!p!"^a Tempo" [DGB]2 z2 z2 [FAcf] z | [FBd]2- [FBd] z!f! [GBce] z [FAcf] z | %54
 [FBd]2 z2!p! [CGAc] z [D^FAd] z | [DGB]2 z2 z4 |!p! [^FA]4- [FA] z [GA] z | %57
 [^FA]2- [FA] z!p! ([DF]4 | [D^FA]4 .[DF=B]2) .[^CG^c]2 | [D^Fd]2- [DFd] z [DFc]2- [DFc] z | %60
!p! [DGB]2 z2 z2 [FAcf] z | [FBd] z z2 [GBce] z [FAcf] z | [FBd] z z2 [CGAc] z [D^FAd] z | %63
 [B,EG]2 z2!p!!>(! ([^C=EGB]4!>)! | [D^FA]2-) [DFA] z!>(! ([^C=EGB]4 | %65
 [D^FA]2-) [DFA]!>)! z!pp! [DFd]4 | [D^Fd]4- [DFd]2 z2 | ([D^F=B]4 [^CG^c]4 | %68
 [D^Fd]) z!pp! (d'a =b2 (5:4:5^c'/d'/c'/b/c'/ | a2 d'a =b2 (5:4:5^c'/d'/c'/b/c'/ | %70
 d') z"_poco rall." [dd'] z [d^fad'] z [dd'] z | [dg=bd'] z [dd'] z [d^fc'd'] z [dd'] z | %72
"_Più lento" [dg=bd'] z .[=Bd]2 ([Bd]3 [B=e]) | .[c=e]2 .[cf]2 !tenuto![c^f]2- [cf] z | %74
!p! [=Bg]2- [Bg] z!pp! ([GBg]4 | ([^CG^c]4) [D^F=c]2)"_1° Tempo" z2 | %76
 [DGB]2 z2!8va(! .[d'd'']z.[c'c''] z | .[d'd'']2 z2 z2!<(! .[e'e''].[f'f''] | %78
 [g'g'']2!8va)!!<)! z2 z4 | z8 | z4 z2!p! (e2 |"_molto rall." c8 | %82
 =B)"^a Tempo" z (gd"^gai" =e2 (5:4:5^f/g/f/e/f/ | d2 gd =e2 (5:4:5^f/g/f/e/f/ | %84
 g) z!f! [dgd'] z [dgd'] z [egc'] z |!>(! ([dgb]2 .[ca]).[Bg] [ca]2-!>)! [ca] z | %86
!p! (d2 gd =e2 (5:4:5^f/g/f/e/f/ | d2 gd =e2 (5:4:5^f/g/f/e/f/ | %88
 g)!f!!<(! z [dgd'] z [dgd'] z [ege']!<)! z |"_dim.   e    rall." g2 ^f=e"_M.G." !trill(!Tf4- | %90
 !trill)!^f6({gf)} !tenuto!=e!tenuto!f | !tenuto![Bg]8- |"^a Tempo" [Bg] z z2 z4 | %93
!p! [DGB]2 z2 z2!<(! !^![FAcf] z!<)! | !^![FBd]2- [FBd] z!f! [GBce] z [FAcf] z | %95
 [FBd]2 z2!p! [CGAc] z [D^FAd] z | [DGB]2 z2 z4 | [^FA]4- [FA] z [GA] z | %98
 [^FA]2- [FA] z!mf! [DF]4 | ([D^FA]4 .[DF=B]2) .[^CG^c]2 | [D^Fd]2- [DFd] z!p! [DFc]2- [DFc] z | %101
!p! [DGB]2 z2 z2 [FAcf] z | [FBd] z z2!<(! [GBce] z [FAcf] z!<)! | %103
 [FBd] z z2!p! [CGAc] z [D^FAd] z | [B,EG]2 z2!p!!>(! (!^![^C=EGB]4!>)! | %105
 [D^FA]2-) [DFA] z!>(! (!^![^C=EGB]4 | [D^FA]2-)!>)! [DFA] z!<(! [D^Fd]4!<)! | %107
!mf! [D^Fd]4- [DFd]2 z2 |!p! ([D^F=B]4 [^CG^c]4 | [D^Fd]) z!pp! (d'a =b2 (5:4:5^c'/d'/c'/b/c'/ | %110
 a2 d'a =b2 (5:4:5^c'/d'/c'/b/c'/ | d') z"_poco rall." [dd'] z [d^fad'] z [dd'] z | %112
 [dg=bd'] z [dd'] z [d^fc'd'] z [dd'] z |"^Più lento"!p! [dg=bd'] z .[=Bd]2 ([Bd]3 [B=e]) | %114
 .[c=e]2 .[cf]2 !tenuto![c^f]2- [cf] z | [=Bg]2- [Bg] z!pp! ([GBg]4 | %116
 ([^CG^c]4) [D^F=c]2)"^1° Tempo" z2 | [DGB]2 z2!p!!8va(! .[d'd'']z.[c'c''] z | %118
 .[d'd'']2 z2 z2!<(! .[e'e''].[f'f'']!<)! | .[g'g'']2!8va)! z2 z4 | z8 | %121
 z4 z2!p!"_molto rall." (e2 | c8 | =B8-) | =B2 z2 !fermata!z4 |] %125
V:3
 (=BGBG cGAG | =BGBG cGAG | _B) z[K:bass] [B,,B,] z [B,,B,] z [C,C] z | [D,D]4- [D,D] z [D,,D,] z | %4
[K:treble] (=BGBG cGAG | =BGBG cGAG | _B) z[K:bass] [B,,B,] z [B,,B,] z [C,C] z | !1!D4- !5!D4- | %8
[K:G] D8 | [G,,G,]8- | [G,,G,] z z2 z4 ||[K:Bb] [G,,G,]2 z2 z2 [F,,F,] z | %12
 [B,,B,]2- [B,,B,] z [F,,F,]2 z2 | [B,,B,]2 z2 [E,,E,] z [D,,D,] z | [G,,G,]2 z2 z4 | %15
 [A,D]4- [A,D] z [A,^C] z | [D,D]2- [D,D] z (=B,4 | A,4-) A,2 .A,,2 | D,2- D, z A,2- A, z | %19
 [G,,G,]2 z2 z2 .[F,,F,] z | .[B,,B,] z z2 [F,,F,]2 z2 | .[B,,B,]2 z2 .[E,,E,] z .[D,,D,] z | %22
 [E,,E,]2 z2 (!^![A,,,A,,]4 | [D,,D,]2-) [D,,D,] z (!^![A,,,A,,]4 | [D,,D,]2-) [D,,D,] z (=B,4 | %25
 A,4-) A,2 z2 | (A,4 A,,4 |!ped! z2[K:treble] (^fd gd)!ped-up!=ed | ^fdfd gd=ed | ^f) z z2 (c4 | %30
 =B4 A4) |[K:bass] [G,,D,]2-!<(! [G,,D,] z[K:treble] [DG]2- [DG] z | %32
[K:bass] [D,,D,]2- [D,,D,] z[K:treble] [DA]2-!<)! [DA] z | %33
[K:bass] [G,,G,]2- [G,,G,] z ([=E,,=E,]4 | [A,,A,]4 [D,,D,]2) z2 | %35
!p! [G,,G,]2 z2[K:treble] .[DGBd]z.[FAcf] z | [FBd]2 z2 z4 | [EGB_d]2 z2 z4 |!pp! [DG=B]8- | %39
 [DG=B]4- [DGB] z[K:bass] [C,,C,]2 | z4 (D4 | G,) z[K:treble] (=BG cGAG | =BGBG cGAG | %43
 _B) z[K:bass] [B,,B,] z [B,,B,] z [C,C] z | [D,D]4- [D,D] z [D,,D,] z |[K:treble] (=BGBG cGAG | %46
 =BGBG cGAG | _B) z[K:bass] [B,,B,] z [B,,B,] z [C,C] z | !>!D4- !5!D4- | D8 | [G,,G,]8- | %51
 [G,,G,] z z2 z4 | [G,,G,]2 z2 z2 [F,,F,] z | [B,,B,]2- [B,,B,] z [F,,F,]2 z2 | %54
 [B,,B,]2 z2 [E,,E,] z [D,,D,] z | [G,,G,]2 z2 z4 | [A,D]4- [A,D] z [A,^C] z | %57
 [D,D]2- [D,D] z (=B,4 | A,4-) A,2 .A,,2 | D,2- D, z A,2- A, z | [G,,G,]2 z2 z2 [F,,F,] z | %61
 [B,,B,] z z2 [F,,F,]2 z2 | [B,,B,] z z2 [E,,E,] z [D,,D,] z | [E,,E,]2 z2 ([A,,,A,,]4 | %64
 [D,,D,]2-) [D,,D,] z (([A,,,A,,]4 | [D,,D,]2-)) [D,,D,]2 (=B,4 | A,4-) A,2 z2 | A,4 A,,4 | %68
!ped! z2[K:treble] (^fd gd!ped-up!=ed | ^fdfd gd=ed | ^f) z z2 (c4 | =B4 A4) | %72
[K:bass] [G,,D,]2-!<(! [G,,D,] z[K:treble] [DG]2- [DG] z | %73
[K:bass] [D,,D,]2- [D,,D,] z!<)![K:treble] [DA]2- [DA] z | %74
[K:bass] [G,,G,]2- [G,,G,] z ([=E,,=E,]4 | [A,,A,]4 [D,,D,]2) z2 | %76
!p! [G,,G,]2 z2[K:treble] [DGBd]z[FAcf] z | [FBd]2 z2 z4 | [EGB_d]2 z2 z4 |!p! [DG=B]8- | %80
 [DG=B]4- [DGB] z[K:bass] [C,,C,]2 | z4 (D4 | G,) z[K:treble] (=BG cG=AG | =BGBG cGAG | %84
 _B) z[K:bass] [B,,B,] z [B,,B,] z [C,C] z | [D,D]4- [D,D] z [D,,D,] z |[K:treble] (=BGBG cGAG | %87
 =BGBG cGAG | _B) z[K:bass] [B,,B,] z [B,,B,] z [C,C] z | !1!D4- !5!D4- | D8 | [G,,G,]8- | %92
 [G,,G,] z z2 z4 | [G,,G,]2 z2 z2 !^![F,,F,] z | !^![B,,B,]2- [B,,B,] z [F,,F,]2 z2 | %95
 [B,,B,]2 z2 [E,,E,] z [D,,D,] z | [G,,G,]2 z2 z4 | [A,D]4- [A,D] z [A,^C] z | %98
 [D,D]2- [D,D] z =B,4 | A,4- A,2 .A,,2 | D,2- D, z A,2- A, z | [G,,G,]2 z2 z2 [F,,F,] z | %102
 [B,,B,] z z2 [F,,F,]2 z2 | [B,,B,] z z2 [E,,E,] z [D,,D,] z | [E,,E,]2 z2 ([A,,,A,,]4 | %105
 [D,,D,]2-) [D,,D,] z (([A,,,A,,]4 | [D,,D,]2-)) [D,,D,] z =B,4 | A,4- A,2 z2 | (A,4 A,,4 | %109
!ped! z2[K:treble] (^fd gd)!ped-up!=ed | ^fdfd gd=ed | ^f) z z2 (c4 | =B4 A4) | %113
[K:bass]!<(! [G,,D,]2- [G,,D,] z[K:treble] [DG]2- [DG] z | %114
[K:bass] [D,,D,]2- [D,,D,] z[K:treble] [DA]2-!<)! [DA] z | %115
[K:bass] [G,,G,]2- [G,,G,] z ([=E,,=E,]4 | [A,,A,]4 [D,,D,]2) z2 | %117
!p! [G,,G,]2 z2[K:treble] .[DGBd]z.[FAcf] z | .[FBd]2 z2 z4 | [EGB_d] z .G.A .B2 z2 | %120
!pp! [DG=B]8- | [DG=B]4- [DGB] z[K:bass] [C,,C,]2 | z4 (D4 | G,8-) | G,2 z2 !fermata!z4 |] %125
V:4
 x8 | x8 | x8 | x8 | x8 | x8 | x8 | c4 !^!c4 |[K:G] !^!d4 !^!c4 | x8 | x8 ||[K:Bb] x8 | x8 | x8 | %14
 x8 | x8 | x8 | x8 | x8 | x8 | x8 | x8 | x8 | x8 | x8 | x8 | x8 | x8 | x8 | x8 | x8 | x8 | x8 | %33
 x8 | x8 | x4!8va(! x4 | x8 | x2!8va)! x6 | x8 | x6 G2 | G2 ^F=E F2 EF | x8 | x8 | x8 | x8 | x8 | %46
 x8 | x8 | c4 !^!c4 | !trill)!!^!d4 !^!c4 | x8 | x8 | x8 | x8 | x8 | x8 | x8 | x8 | x8 | x8 | x8 | %61
 x8 | x8 | x8 | x8 | x8 | x8 | x8 | x8 | x8 | x8 | x8 | x8 | x8 | x8 | x8 | x4!8va(! x4 | x8 | %78
 x2!8va)! x6 | x8 | x6 G2 | (G2 ^F=E F2 EF | G) x7 | x8 | x8 | x8 | x8 | x8 | x8 | c4 !^!c4 | %90
 !^!d4 !^!c4 | x8 | x8 | x8 | x8 | x8 | x8 | x8 | x8 | x8 | x8 | x8 | x8 | x8 | x8 | x8 | x8 | x8 | %108
 x8 | x8 | x8 | x8 | x8 | x8 | x8 | x8 | x8 | x4!8va(! x4 | x8 | x2!8va)! x6 | x8 | x6 (G2 | %122
 G2 ^F=E F2 EF | G8-) | G2 x6 |] %125
V:5
 x8 | x8 | x2[K:bass] x6 | x8 |[K:treble] x8 | x8 | x2[K:bass] x6 | D,2 z2 z4 |[K:G] x8 | x8 | %10
 x8 ||[K:Bb] x8 | x8 | x8 | x8 | x8 | x8 | x8 | x8 | x8 | x8 | x8 | x8 | x8 | x8 | x8 | x8 | %27
 D,6-[K:treble] D, z | x8 | x8 | x8 |[K:bass] x4[K:treble] x4 |[K:bass] x4[K:treble] x4 | %33
[K:bass] x8 | x8 | x4[K:treble] x4 | x8 | x8 | x8 | x6[K:bass] x2 | (D,8 | G,,) x[K:treble] x6 | %42
 x8 | x2[K:bass] x6 | x8 |[K:treble] x8 | x8 | x2[K:bass] x6 | D,2 z2 z4 | x8 | x8 | x8 | x8 | x8 | %54
 x8 | x8 | x8 | x8 | x8 | x8 | x8 | x8 | x8 | x8 | x8 | x8 | x8 | x8 | D,6-[K:treble] D, z | x8 | %70
 x8 | x8 |[K:bass] x4[K:treble] x4 |[K:bass] x4[K:treble] x4 |[K:bass] x8 | x8 | x4[K:treble] x4 | %77
 x8 | x8 | x8 | x6[K:bass] x2 | (D,8 | G,,) x[K:treble] x6 | x8 | x2[K:bass] x6 | x8 | %86
[K:treble] x8 | x8 | x2[K:bass] x6 | D,2 z2 z4 | x8 | x8 | x8 | x8 | x8 | x8 | x8 | x8 | x8 | x8 | %100
 x8 | x8 | x8 | x8 | x8 | x8 | x8 | x8 | x8 | D,6-[K:treble] D, z | x8 | x8 | x8 | %113
[K:bass] x4[K:treble] x4 |[K:bass] x4[K:treble] x4 |[K:bass] x8 | x8 | x4[K:treble] x4 | x8 | x8 | %120
 x8 | x6[K:bass] x2 | (D,8 | G,,8-) | G,,2 x6 |] %125
V:6
 x8 | x8 | x2[K:bass] x6 | x8 |[K:treble] x8 | x8 | x2[K:bass] x6 | x8 |[K:G] x8 | x8 | x8 || %11
[K:Bb] x8 | x8 | x8 | x8 | x8 | x8 | x8 | x8 | x8 | x8 | x8 | x8 | x8 | x8 | x8 | x8 | %27
 x2[K:treble] x6 | x8 | x8 | x8 |[K:bass] x4[K:treble] x4 |[K:bass] x4[K:treble] x4 |[K:bass] x8 | %34
 x8 | x4[K:treble] x4 | x8 | x8 | x8 | x6[K:bass] x2 | D,,2 z2 z4 | x2[K:treble] x6 | x8 | %43
 x2[K:bass] x6 | x8 |[K:treble] x8 | x8 | x2[K:bass] x6 | x8 | x8 | x8 | x8 | x8 | x8 | x8 | x8 | %56
 x8 | x8 | x8 | x8 | x8 | x8 | x8 | x8 | x8 | x8 | x8 | x8 | x2[K:treble] x6 | x8 | x8 | x8 | %72
[K:bass] x4[K:treble] x4 |[K:bass] x4[K:treble] x4 |[K:bass] x8 | x8 | x4[K:treble] x4 | x8 | x8 | %79
 x8 | x6[K:bass] x2 | D,,2 z2 z4 | x2[K:treble] x6 | x8 | x2[K:bass] x6 | x8 |[K:treble] x8 | x8 | %88
 x2[K:bass] x6 | x8 | x8 | x8 | x8 | x8 | x8 | x8 | x8 | x8 | x8 | x8 | x8 | x8 | x8 | x8 | x8 | %105
 x8 | x8 | x8 | x8 | x2[K:treble] x6 | x8 | x8 | x8 |[K:bass] x4[K:treble] x4 | %114
[K:bass] x4[K:treble] x4 |[K:bass] x8 | x8 | x4[K:treble] x4 | x8 | x8 | x8 | x6[K:bass] x2 | %122
 D,,2 z2 z4 | x8 | x8 |] %125

